X: 1
T: Jack's The Lad
T: The Sailor's Hornpipe
T: The College Hornpipe
M: 4/4
L: 1/8
R: hornpipe
K: Bbmaj
BA|B2B,2 B,2FE|DFBA BdcB|c2C2 C2cB|Acf2 f2ga|
bagf gfed|edcB BAGF|GBAc Bdce|d2B2 B2:|
|:FE|DFBF DFBF|G2E2 E2GF|=EGcG EGcG|A2F2 F2cd|
edef gfed|edcB BAGF|GBAc Bdce|d2B2 B2:|
And again in the key of G:
